src/lib/packages/icons/src/assets/filled/presentation-chart-line.svg

<svg width="24" height="24" viewBox="0 0 24 24" fill="none" xmlns="http://www.w3.org/2000/svg">
<path d="M21 2.25H3C2.586 2.25 2.25 2.586 2.25 3C2.25 3.414 2.586 3.75 3 3.75H4V13C4 15.29 5.21 16.5 7.5 16.5H11.25V18.6L8.58 20.38C8.24 20.61 8.15 21.07 8.38 21.42C8.61 21.76 9.07 21.85 9.42 21.62L12 19.9L14.58 21.62C14.71 21.71 14.86 21.75 15 21.75C15.24 21.75 15.48 21.63 15.62 21.42C15.85 21.07 15.76 20.61 15.42 20.38L12.75 18.6V16.5H16.5C18.79 16.5 20 15.29 20 13V3.75H21C21.414 3.75 21.75 3.414 21.75 3C21.75 2.586 21.414 2.25 21 2.25ZM16.53 8.43005L14.295 10.665C13.692 11.269 12.709 11.27 12.105 10.667L10.834 9.39795L8.53101 11.63C8.38501 11.776 8.19301 11.85 8.00101 11.85C7.80901 11.85 7.61699 11.777 7.47099 11.63C7.17799 11.337 7.17799 10.862 7.47099 10.569L9.703 8.33704C10.308 7.73304 11.291 7.73306 11.894 8.33606L13.165 9.60498L15.471 7.37C15.764 7.07699 16.239 7.07699 16.532 7.37C16.825 7.663 16.823 8.13705 16.53 8.43005Z" fill="currentColor"/>
</svg>

<svg xmlns="http://www.w3.org/2000/svg" width="24" height="24" fill="none"><path fill="currentColor" d="M21 2.25H3a.75.75 0 0 0 0 1.5h1V13c0 2.29 1.21 3.5 3.5 3.5h3.75v2.1l-2.67 1.78c-.34.23-.43.69-.2 1.04.23.34.69.43 1.04.2L12 19.9l2.58 1.72a.751.751 0 0 0 .84-1.24l-2.67-1.78v-2.1h3.75c2.29 0 3.5-1.21 3.5-3.5V3.75h1a.75.75 0 0 0 0-1.5Zm-4.47 6.18-2.235 2.235a1.55 1.55 0 0 1-2.19.002l-1.271-1.269-2.303 2.232a.748.748 0 0 1-1.06 0 .75.75 0 0 1 0-1.061l2.232-2.232a1.552 1.552 0 0 1 2.191 0l1.271 1.268 2.306-2.235a.75.75 0 1 1 1.059 1.06Z"/></svg>
